!!!!SEGMENT: pl-wtm--r-1543--008_stefani-jozef--msza-in-f-dona-nobis.krn
!!!cenid: 18xx:1792
!!!COM: Stefani, Józef
!!!COM-rismID: pe30024097
!!!CDT: 1800/04/16-1876/03/19
!!!CNT: Polish
!!!OPR: Msza in F
!!!OTL: Dona nobis
!!!OMV: 008
!!!PDT:
!!!AGN: Sacred; Mass
!!!SMS-siglum: PL-Wtm
!!!SMS-shelfmark: R 1543
!!!SMS-shelfwork: 001-008 M
!!!SMS-variant:
!!!SMS-altvar:
!!!NIFC-rismSourceID: 1001120491
!!!NIFC-islandoraID: pl-wtm:26483
!!!URL-pdf-islandora: https://repozytorium.nifc.pl/islandora/object/pl-wtm%3A26483/datastream/PDF/view
!!!URL-scan: https://polish.musicsources.pl/pl/lokalizacje/galeria/rekopisy/6344 @EN{Scan on Polish Music Herritage in Open Access Website} @PL{Skany w portalu Dziedzictwo Muzyki Polskiej w otwartym dostępie}
!!!ONB-nifc: UWAGA: części Mszy: 1. Kyrie, 2. Gloria, 3. Graduale, 4. Credo, 5. Offertorium, 6. Sanctus, 7. Agnus Dei, 8. Dona nobis
!!!OMD: Allegro moderato.
!!!AIN: 1 alto 4 clars 2 cor 2 empty 1 fagot 1 flt 1 oboe 1 organ 1 serp 1 soprn 1 tenor 1 timpa 1 tromp
!!!key:
**kern	**kern	**kern	**text	**kern	**text	**kern	**kern	**text	**kern	**kern	**dynam	**kern	**kern	**dynam	**kern	**dynam	**kern	**dynam	**kern	**dynam	**kern	**kern	**dynam	**kern	**dynam	**kern	**kern	**dynam	**kern	**dynam
*part18	*part18	*part17	*part17	*part16	*part16	*part15	*part14	*part14	*part13	*part12	*part12	*part11	*part10	*part10	*part9	*part9	*part8	*part8	*part7	*part7	*part6	*part5	*part5	*part4	*part4	*part3	*part2	*part2	*part1	*part1
*staff19	*staff18	*staff17	*staff17	*staff16	*staff16	*staff15	*staff14	*staff14	*staff13	*staff12	*	*staff11	*staff10	*	*staff9	*	*staff8	*	*staff7	*	*staff6	*staff5	*	*staff4	*	*staff3	*staff2	*	*staff1	*
*	*	*group1	*	*group1	*	*group1	*group1	*	*	*	*	*	*	*	*	*	*	*	*	*	*	*	*	*	*	*	*	*	*	*
*Iorgan	*Iempty	*Iempty	*	*Itenor	*	*Ialto	*Isoprn	*	*Itimpa	*Ifagot	*	*Iempty	*Iserp	*	*Itromp	*	*Icor	*	*Icor	*	*Iclars	*Iclars	*	*Iclars	*	*Iclars	*Ioboe	*	*Iflt	*
*I"Organo	*	*I"Baſso	*	*I"Tenore	*	*I"Alto	*I"Soprano	*	*I"Timpani	*I"Fagotti	*	*	*I"Tromboni et Serpent	*	*I"Trombe in C.	*	*I"in F. Corni	*	*I"in C Corni	*	*I"Clarineto 2do in C	*I"Clarineto 1mo in C	*	*I"Clarinetto Obligato in C.	*	*I"Petit Clarinet in F.	*I"Oboe	*	*I"Flauto	*
*clefF4	*clefG2	*clefF4	*	*clefC4	*	*clefG2	*clefG2	*	*clefF4	*clefF4	*	*clefF4	*clefC4	*	*clefG2	*	*clefG2	*	*clefG2	*	*clefG2	*clefG2	*	*clefG2	*	*clefG2	*clefG2	*	*clefG2	*
*	*	*	*	*	*	*	*	*	*	*	*	*	*	*	*	*	*ITrd4c7	*	*	*	*	*	*	*	*	*ITrd4c7	*	*	*	*
*k[b-]	*k[b-]	*k[b-]	*	*k[b-]	*	*k[b-]	*k[b-]	*	*k[b-]	*k[b-]	*	*k[b-]	*k[b-]	*	*k[b-]	*	*k[b-]	*	*k[b-]	*	*k[b-]	*k[b-]	*	*k[b-]	*	*k[b-]	*k[b-]	*	*k[b-]	*
*F:	*F:	*F:	*	*F:	*	*F:	*F:	*	*F:	*F:	*	*F:	*F:	*	*F:	*	*	*	*F:	*	*F:	*F:	*	*F:	*	*	*F:	*	*F:	*
*M3/4	*M3/4	*M3/4	*	*M3/4	*	*M3/4	*M3/4	*	*M3/4	*M3/4	*	*M3/4	*M3/4	*	*M3/4	*	*M3/4	*	*M3/4	*	*M3/4	*M3/4	*	*M3/4	*	*M3/4	*M3/4	*	*M3/4	*
*all\right	*all\right	*all\right	*	*all\right	*	*all\right	*all\right	*	*all\right	*all\right	*	*all\right	*all\right	*	*all\right	*	*all\right	*	*all\right	*	*all\right	*all\right	*	*all\right	*	*all\right	*all\right	*	*all\right	*
=1	=1	=1	=1	=1	=1	=1	=1	=1	=1	=1	=1	=1	=1	=1	=1	=1	=1	=1	=1	=1	=1	=1	=1	=1	=1	=1	=1	=1	=1	=1
*	*	*	*	*	*	*	*	*	*	*	*	*	*^	*	*	*	*	*	*	*	*	*	*	*	*	*	*	*	*	*
!	!	!	!	!	!	!	!	!	!	!	!	!	!	!	!LO:DY:rj	!	!LO:DY:rj	!	!	!	!	!	!	!	!	!	!	!	!LO:DY:rj	!	!LO:DY:rj
4c 4C\	4cc 4c/	2.r	.	2.r	.	2.r	2.r	.	4r	8.cL 8.C\	.	8.C/L	8.c\L	2ryy	f	8.ccL 8.c/	f	4r	.	2.r	.	8.cc\L	8.cc\L	.	8.cc\L	.	8.cc\L	8.cc\L	f	8.cccL\	f
.	.	.	.	.	.	.	.	.	.	16cJk 16C\	.	16C/Jk	16c\Jk	.	.	16ccJk 16c/	.	.	.	.	.	16cc\Jk	16cc\Jk	.	16cc\Jk	.	16cc\Jk	16cc\Jk	.	16cccJ\	.
4B- 4BB-\	4dd 4d/	.	.	.	.	.	.	.	4r	4B- 4BB-\	.	4BB-/	4d/	.	.	4dd 4d/	.	4r	.	.	.	4dd\	4dd\	.	4dd\	.	4dd\	4dd\	.	4ddd\	.
!	!	!	!	!	!	!	!	!	!	!	!	!	!	!	!	!	!	!	!LO:DY:rj	!	!	!	!	!	!	!	!	!	!	!	!
4G 4GG/	4ee 4cc 4b- 4e/	.	.	.	.	.	.	.	4F\	4G 4GG/	.	4GG/	4c/	4B-\	.	4b- 4e/	.	4g 4c/	f	.	.	4b-\	4cc\	.	4ee\	.	4ee\	4ee 4b-\	.	4eee\	.
=2	=2	=2	=2	=2	=2	=2	=2	=2	=2	=2	=2	=2	=2	=2	=2	=2	=2	=2	=2	=2	=2	=2	=2	=2	=2	=2	=2	=2	=2	=2	=2
*	*	*	*	*	*	*	*	*	*	*	*	*	*	*	*	*	*	*^	*	*	*	*	*	*	*	*	*	*	*	*	*
8.FL 8.FF/	8.ffL 8.cc 8.a 8.f/	2.r	.	2.r	.	2.r	2.r	.	8.C/L	8.FL 8.FF/	.	8.FF/L	8.c/L	8.A\L	.	8.aL 8.f/	.	8.aL 8.f/	4ryy	.	4r	.	8.a/L	8.cc\L	.	8.ff\L	.	8.ff\L	8.ffL 8.a\	.	8.fff\L	.
16EJk 16EE/	16ggJk 16cc/	.	.	.	.	.	.	.	16C/Jk	16EJk 16EE/	.	16E/Jk	16c/Jk	16G\Jk	.	16gJk 16e/	.	16gJk 16c/	.	.	.	.	16g/Jk	16cc\Jk	.	16gg\Jk	.	16gg\Jk	16ggJk 16cc\	.	16ggg\Jk	.
4F 4FF/	4aa 4ff 4cc\	.	.	.	.	.	.	.	4C/	4F 4FF/	.	4F\	4c/	4A\	.	4a 4f/	.	4a/	4f\	.	4r	.	4a/	4ff\	.	4aa\	.	4aa\	4aa 4cc\	.	4aaa\	.
4D 4DD/	4bn 4g 4f 4d/	.	.	.	.	.	.	.	4F\	4D 4DD/	.	4D\	4f\	4Bn\	.	4bn 4d/	.	4g/	4f\	.	4dd 4g/	.	4bn/	4ff\	.	4bbn\	.	4bX\	4bbn 4dd\	.	4bbn\	.
*	*	*	*	*	*	*	*	*	*	*	*	*	*	*	*	*	*	*v	*v	*	*	*	*	*	*	*	*	*	*	*	*	*
=3	=3	=3	=3	=3	=3	=3	=3	=3	=3	=3	=3	=3	=3	=3	=3	=3	=3	=3	=3	=3	=3	=3	=3	=3	=3	=3	=3	=3	=3	=3	=3
4C 4CC/	4cc 4g 4e/	2.r	.	2.r	.	2.r	2.r	.	4C/	4C 4CC/	.	4C/	4e/	4c\	.	4cc 4e/	.	4g 4c/	.	4cc 4e/	.	4cc/	4ee\	.	4ccc\	.	4cc\	4ccc 4ee\	.	4ccc\	.
.	8qcc/	.	.	.	.	.	.	.	.	.	.	.	.	.	.	.	.	.	.	.	.	.	.	.	.	.	.	.	.	.	.
16C\LL	16ccc\LL	.	.	.	.	.	.	.	4r	16CLL 16CC/	.	4r	4r	4ryy	.	4r	.	4r	.	4r	.	16cc/LL	16cc/LL	.	16ccc\LL	.	16cc\LL	16ccc\LL	.	16ccc\LL	.
16D\	16bbn\	.	.	.	.	.	.	.	.	16D 16DD/	.	.	.	.	.	.	.	.	.	.	.	16bn/	16bn/	.	16bbn\	.	16bX\	16bbn\	.	16bbn\	.
16E\	16aa\	.	.	.	.	.	.	.	.	16E 16EE/	.	.	.	.	.	.	.	.	.	.	.	16a/	16a/	.	16aa\	.	16a\	16aa\	.	16aa\	.
16F\JJ	16gg\JJ	.	.	.	.	.	.	.	.	16FJJ 16FF/	.	.	.	.	.	.	.	.	.	.	.	16g/JJ	16g/JJ	.	16gg\JJ	.	16g\JJ	16gg\JJ	.	16gg\JJ	.
16G\LL	16ff\LL	.	.	.	.	.	.	.	4r	16GLL 16GG\	.	4r	4r	4ryy	.	4r	.	4r	.	4r	.	16f/LL	16f/LL	.	16ff\LL	.	16f/LL	16ff\LL	.	16ff\LL	.
16A\	16ee\	.	.	.	.	.	.	.	.	16A 16AA\	.	.	.	.	.	.	.	.	.	.	.	16e/	16e/	.	16ee\	.	16e/	16ee\	.	16ee\	.
16Bn\	16dd\	.	.	.	.	.	.	.	.	16Bn 16BBn\	.	.	.	.	.	.	.	.	.	.	.	16d/	16d/	.	16dd\	.	16d/	16dd\	.	16dd\	.
16c\JJ	16cc\JJ	.	.	.	.	.	.	.	.	16cJJ 16C\	.	.	.	.	.	.	.	.	.	.	.	16c/JJ	16c/JJ	.	16cc\JJ	.	16c/JJ	16cc\JJ	.	16cc\JJ	.
=4	=4	=4	=4	=4	=4	=4	=4	=4	=4	=4	=4	=4	=4	=4	=4	=4	=4	=4	=4	=4	=4	=4	=4	=4	=4	=4	=4	=4	=4	=4	=4
*	*	*	*	*	*	*	*	*	*	*	*	*	*	*	*	*	*	*^	*	*	*	*	*^	*	*	*	*	*	*	*	*
4F 4FF/	4aa 4ff 4cc\	2.r	.	2.r	.	2.r	2.r	.	8.C/L	8.FL 8.FF/	.	8.F\L	8.cL 8.A\	4ryy	.	8.aL 8.f/	.	8.aL 8.f\	4ryy	.	8.cc\L	.	8.f/L	8.aL 8.f/	2ryy	.	8.aa\L	.	8.a\L	8.aaL 8.ff\	.	8.aa\L	.
.	.	.	.	.	.	.	.	.	16C/Jk	16FJk 16FF/	.	16F\Jk	16cJk 16A\	.	.	16aJk 16f/	.	16aJk 16f\	.	.	16cc\Jk	.	16f/Jk	16aJk 16f/	.	.	16aa\Jk	.	16a\Jk	16aaJk 16ff\	.	16aa\Jk	.
2G 2GG/	4gg 4ee 4cc\	.	.	.	.	.	.	.	4C/	4G 4GG/	.	4G\	4c/	4G\	.	4g 4e/	.	4g 4c/	4ryy	.	4ee 4cc\	.	4e/	4g 4e/	.	.	4gg\	.	4g\	4gg 4ee\	.	4gg\	.
.	4bbn 4gg 4ff 4dd\	.	.	.	.	.	.	.	4F\	4G 4GG/	.	4GG/	4d/	4G\	.	4bn 4d/	.	4g/	4f\	.	4dd 4g/	.	4f/	4bn/	4f\	.	4bbn\	.	4bX\	4bbn 4dd\	.	4bbn\	.
*	*	*	*	*	*	*	*	*	*	*	*	*	*v	*v	*	*	*	*v	*v	*	*	*	*	*v	*v	*	*	*	*	*	*	*	*
!!LO:PB:g=original
=5	=5	=5	=5	=5	=5	=5	=5	=5	=5	=5	=5	=5	=5	=5	=5	=5	=5	=5	=5	=5	=5	=5	=5	=5	=5	=5	=5	=5	=5	=5
4c 4C\	4ccc 4gg 4ee\	2.r	.	2.r	.	2.r	2.r	.	4C/	4c 4C\	.	4C/	4e 4G\	.	4cc 4e/	.	4g 4c\	.	4a 4d/	.	4e/	4cc 4e/	.	4ccc\	.	4cc\	4ccc 4ee\	.	4ccc\	.
16C\LL	16ccc\LL	.	.	.	.	.	.	.	4r	16CLL 16CC/	.	4r	4r	.	4r	.	4r	.	4r	.	16cc/LL	16cc/LL	.	16ccc\LL	.	16cc\LL	16ccc\LL	.	16ccc\LL	.
16D\	16bbn\	.	.	.	.	.	.	.	.	16D 16DD/	.	.	.	.	.	.	.	.	.	.	16bn/	16bn/	.	16bbn\	.	16bX\	16bbn\	.	16bbn\	.
16E\	16aa\	.	.	.	.	.	.	.	.	16E 16EE/	.	.	.	.	.	.	.	.	.	.	16a/	16a/	.	16aa\	.	16a\	16aa\	.	16aa\	.
16F\JJ	16gg\JJ	.	.	.	.	.	.	.	.	16FJJ 16FF/	.	.	.	.	.	.	.	.	.	.	16g/JJ	16g/JJ	.	16gg\JJ	.	16g\JJ	16gg\JJ	.	16gg\JJ	.
16G\LL	16ff\LL	.	.	.	.	.	.	.	4r	16GLL 16GG\	.	4r	4r	.	4r	.	4r	.	4r	.	16f/LL	16f/LL	.	16ff\LL	.	16f/LL	16ff\LL	.	16ff\LL	.
16A\	16ee\	.	.	.	.	.	.	.	.	16A 16AA\	.	.	.	.	.	.	.	.	.	.	16e/	16e/	.	16ee\	.	16e/	16ee\	.	16ee\	.
16Bn\	16dd\	.	.	.	.	.	.	.	.	16Bn 16BBn\	.	.	.	.	.	.	.	.	.	.	16d/	16d/	.	16dd\	.	16d/	16dd\	.	16dd\	.
16c\JJ	16cc\JJ	.	.	.	.	.	.	.	.	16cJJ 16C\	.	.	.	.	.	.	.	.	.	.	16c/JJ	16c/JJ	.	16cc\JJ	.	16c/JJ	16cc\JJ	.	16cc\JJ	.
=6	=6	=6	=6	=6	=6	=6	=6	=6	=6	=6	=6	=6	=6	=6	=6	=6	=6	=6	=6	=6	=6	=6	=6	=6	=6	=6	=6	=6	=6	=6
*	*	*	*	*	*	*	*	*	*	*	*	*	*	*	*	*	*^	*	*	*	*	*	*	*	*	*	*^	*	*	*
8.FL 8.FF/	8.aaL 8.ff 8.cc\	2.r	.	2.r	.	2.r	2.r	.	8.C/L	8.FL 8.FF/	.	8.F\L	8.cL 8.A\	.	8.aL 8.f/	.	8.aL 8.f\	2ryy	.	8.cc\L	.	8.f/L	8.a/L	.	8.aa\L	.	8.a\L	8.aaL 8.ff\	2ryy	.	8.aa\L	.
16FJk 16FF/	16aaJk 16ff 16cc\	.	.	.	.	.	.	.	16C/Jk	16FJk 16FF/	.	16F\Jk	16cJk 16A\	.	16aJk 16f/	.	16aJk 16f\	.	.	16cc\Jk	.	16f/Jk	16a/Jk	.	16aa\Jk	.	16a\Jk	16aaJk 16ff\	.	.	16aa\Jk	.
4G 4GG/	4gg 4ee 4cc\	.	.	.	.	.	.	.	4C/	4G 4GG/	.	4G\	4c 4G\	.	4g 4e/	.	4g 4c/	.	.	4ee 4cc\	.	4e/	4g/	.	4gg\	.	4g\	4gg 4ee\	.	.	4gg\	.
4G 4GG/	4bn 4g 4f 4d/	.	.	.	.	.	.	.	4F\	4G 4GG/	.	4GG/	4d 4G\	.	4bn 4d/	.	4g/	4f\	.	4dd 4g\	.	4d/	4f/	.	4bn\	.	4BX/	4bn/	4f\	.	4bbn\	.
*	*	*	*	*	*	*	*	*	*	*	*	*	*	*	*	*	*v	*v	*	*	*	*	*	*	*	*	*	*v	*v	*	*	*
=7	=7	=7	=7	=7	=7	=7	=7	=7	=7	=7	=7	=7	=7	=7	=7	=7	=7	=7	=7	=7	=7	=7	=7	=7	=7	=7	=7	=7	=7	=7
8cL 8C\	4cc 4g 4e/	4r	.	4r	.	4r	4r	.	4C/	8c 8C\	.	4C/	4e 4G\	.	4cc 4e/	.	4g 4c/	.	4cc 4e/	.	4e/	4e/	.	4cc\	.	4c/	4cc 4e/	.	4ccc\	.
(16C\L	.	.	.	.	.	.	.	.	.	(16C/LL	.	.	.	.	.	.	.	.	.	.	.	.	.	.	.	.	.	.	.	.
16D\JJ	.	.	.	.	.	.	.	.	.	16D/JJ	.	.	.	.	.	.	.	.	.	.	.	.	.	.	.	.	.	.	.	.
8C/L)	4r	4r	.	4r	.	4r	4r	.	4r	8C/L)	.	4r	4r	.	4r	.	8r	.	4r	.	4r	4r	.	4r	.	4r	4r	p	4r	.
!	!	!	!	!	!	!	!	!	!	!	!	!	!	!	!	!	!	!LO:DY:rj	!	!	!	!	!	!	!	!	!	!	!	!
8C/	.	.	.	.	.	.	.	.	.	8C'/	.	.	.	.	.	.	(>8cL 8C'>/	p	.	.	.	.	.	.	.	.	.	.	.	.
!	!	!	!	!	!	!	!	!	!	!	!	!	!	!	!	!LO:DY:rj	!	!	!	!	!	!	!	!	!LO:DY:rj	!	!	!	!	!
8C/	8gL 8e/	8C/	Gdy-	8c\	.	8e/	8g/	Gdy-	4r	8C'/	.	4r	4r	.	8gL 8e/	p	8c 8C'>/	.	4r	.	(8e/L	(8g/L	.	(8g/L	p	4r	(8ggL 8ee\	.	4r	.
8C/J	8aJ 8f/	8C/	-śmy	8c\	.	8f/	8a/	-śmy	.	8C'/J	.	.	.	.	8aJ 8f/	.	8cJ 8C'>/)	.	.	.	8f/J)	8a/J)	.	8a/J)	.	.	8aaJ 8ff\)	.	.	.
=8	=8	=8	=8	=8	=8	=8	=8	=8	=8	=8	=8	=8	=8	=8	=8	=8	=8	=8	=8	=8	=8	=8	=8	=8	=8	=8	=8	=8	=8	=8
*	*	*	*	*2\right	*	*	*	*	*	*	*	*	*	*	*	*	*	*	*	*	*	*	*	*	*	*	*	*	*	*
8CC/L	4.b- 4.g/	2C/	już	2c\	.	(4.g/	(>4.b-/	już	2.r	8CC/L	.	2.r	2.r	.	(>4.b- 4.g/	.	2.c 2.C/	.	2.r	.	(>4.g/	(4.b-/	.	(4.b-/	.	2.r	4.bb- 4.gg\	.	2.r	.
16C/L	.	.	.	.	.	.	.	.	.	(16C/L	.	.	.	.	.	.	.	.	.	.	.	.	.	.	.	.	.	.	.	.
16D/JJ	.	.	.	.	.	.	.	.	.	16D/JJ	.	.	.	.	.	.	.	.	.	.	.	.	.	.	.	.	.	.	.	.
*	*	*	*	*	*	*	*	*	*	*tremolo	*	*	*	*	*	*	*	*	*	*	*	*	*	*	*	*	*	*	*	*
2C/	.	.	.	.	.	.	.	.	.	8C/L	.	.	.	.	.	.	.	.	.	.	.	.	.	.	.	.	.	.	.	.
.	8aL 8f/	.	.	.	.	8f#X/)	8a/)	.	.	8C'/	.	.	.	.	8aL 8f#X/	.	.	.	.	.	8f#X/L	8a/L	.	8a/L	.	.	(8aaL 8ff#X\	.	.	.
.	8b- 8g/	8C/	wy-	8c\	.	8g/	8b-\	wy-	.	8C'/	.	.	.	.	8b- 8g/	.	.	.	.	.	8g/	8b-/	.	8b-/	.	.	8bb- 8gg\	.	.	.
.	8ccJ 8e/	8C/	-słu-	8c\	.	8e/	8cc\	-słu-	.	8C'/)J	.	.	.	.	8ccJ 8e/)	.	.	.	.	.	8e/J)	8cc/J)	.	8cc/J)	.	.	8cccJ 8ee\)	.	.	.
*	*	*	*	*	*	*	*	*	*	*Xtremolo	*	*	*	*	*	*	*	*	*	*	*	*	*	*	*	*	*	*	*	*
=9	=9	=9	=9	=9	=9	=9	=9	=9	=9	=9	=9	=9	=9	=9	=9	=9	=9	=9	=9	=9	=9	=9	=9	=9	=9	=9	=9	=9	=9	=9
*	*	*	*	*	*	*	*	*	*	*	*	*	*	*	*	*	*^	*	*^	*	*	*	*	*	*	*	*	*	*	*
*	*	*	*	*	*	*	*	*	*	*	*	*	*	*	*	*	*	*	*	*	*	*	*	*	*	*	*	*	*2\right	*	*	*
!LO:TX:t=P:problem=mixed beam	!	!	!	!	!	!	!	!	!	!LO:TX:t=P:problem=mixed beam	!	!	!	!	!	!	!	!	!	!	!	!	!	!	!	!	!	!	!	!	!	!
8FF/L	2a 2f/	4F\	-cha-	4c\	.	4f/	4a/	-cha-	4r	8FF/L	.	4r	4r	.	2a 2f/	.	2c 2F/	2ryy	.	4r	2ryy	.	2f/	2a/	.	2a/	.	4r	2aa 2ff\	.	4r	.
16F\L	.	.	.	.	.	.	.	.	.	(16F\L	.	.	.	.	.	.	.	.	.	.	.	.	.	.	.	.	.	.	.	.	.	.
16G\JJ	.	.	.	.	.	.	.	.	.	16G\JJ	.	.	.	.	.	.	.	.	.	.	.	.	.	.	.	.	.	.	.	.	.	.
!	!	!	!	!	!	!	!	!	!	!LO:TX:t=P:problem=mixed beam	!	!	!	!	!	!	!	!	!	!	!	!	!	!	!	!	!	!	!	!	!	!
4F\	.	4F\	-li	4c\	.	4f/	4a/	-li	4r	8F\L)	.	4r	4r	.	.	.	.	.	.	4r	.	.	.	.	.	.	.	4r	.	.	4r	.
.	.	.	.	.	.	.	.	.	.	8F\	.	.	.	.	.	.	.	.	.	.	.	.	.	.	.	.	.	.	.	.	.	.
!	!	!	!	!	!	!	!	!	!	!	!	!	!	!	!	!LO:DY:rj	!	!	!	!	!	!LO:DY:rj	!	!	!LO:DY:rj	!	!	!	!	!	!	!LO:DY:rj
4A 4AA/	4cc 4f/	4A\	Mszy	4c\	.	4f/	4cc\	Mszy	4F\	8AA'/	.	4A\	4f 4c\	.	4cc 4f/	f	4a/	4f\	.	4cc/	4cc\	f	4f/	4cc/	f	4cc/	.	4cc\	4ff\	.	4ccc\	f
.	.	.	.	.	.	.	.	.	.	8A\J	.	.	.	.	.	.	.	.	.	.	.	.	.	.	.	.	.	.	.	.	.	.
!!LO:PB:g=original
=10	=10	=10	=10	=10	=10	=10	=10	=10	=10	=10	=10	=10	=10	=10	=10	=10	=10	=10	=10	=10	=10	=10	=10	=10	=10	=10	=10	=10	=10	=10	=10	=10
*	*	*	*	*	*	*	*	*	*	*	*	*	*^	*	*^	*	*	*	*	*	*	*	*	*	*	*	*	*	*^	*	*	*
*	*	*	*	*	*	*	*	*	*tremolo	*	*	*	*	*	*	*	*	*	*	*	*	*	*	*	*	*	*	*	*	*	*	*	*	*	*
!	!	!	!	!	!	!	!	!	!	!LO:TX:t=P:problem=mixed beam	!	!	!	!	!	!	!	!	!	!	!	!	!	!	!	!	!	!	!	!	!	!	!	!	!
4B- 4BB-\	4dd 4f 4d/	4B-\	świę-	4d\	.	4f/	4dd\	świę-	32F\LLL	8BB-/L	.	4B-\	4f/	4d\	.	4dd/	4d\	.	4b-/	4f\	.	4dd/	4dd\	.	4f/	4dd\yy	.	4dd\	.	4dd\	4ff/	4dd\	.	4ddd\	.
.	.	.	.	.	.	.	.	.	32F\	.	.	.	.	.	.	.	.	.	.	.	.	.	.	.	.	.	.	.	.	.	.	.	.	.	.
.	.	.	.	.	.	.	.	.	32F\	.	.	.	.	.	.	.	.	.	.	.	.	.	.	.	.	.	.	.	.	.	.	.	.	.	.
.	.	.	.	.	.	.	.	.	32F\	.	.	.	.	.	.	.	.	.	.	.	.	.	.	.	.	.	.	.	.	.	.	.	.	.	.
.	.	.	.	.	.	.	.	.	32F\	8B-\	.	.	.	.	.	.	.	.	.	.	.	.	.	.	.	.	.	.	.	.	.	.	.	.	.
.	.	.	.	.	.	.	.	.	32F\	.	.	.	.	.	.	.	.	.	.	.	.	.	.	.	.	.	.	.	.	.	.	.	.	.	.
.	.	.	.	.	.	.	.	.	32F\	.	.	.	.	.	.	.	.	.	.	.	.	.	.	.	.	.	.	.	.	.	.	.	.	.	.
.	.	.	.	.	.	.	.	.	32F\JJJ	.	.	.	.	.	.	.	.	.	.	.	.	.	.	.	.	.	.	.	.	.	.	.	.	.	.
*	*	*	*	*	*	*	*	*	*Xtremolo	*	*	*	*2\right	*	*	*2\right	*	*	*	*	*	*2\right	*	*	*	*	*	*	*	*	*	*	*	*	*
4.B- 4.BB-\	4.dd 4.f 4.d/	4.B-\	-tej	4.d\	.	4.f/	4.dd\	-tej	4F\	8BB-/	.	4.B-\	4.f/	2d\	.	(4.dd/	2d\	.	4.b-/	4.f\	.	2dd/	2dd\	.	(4.f/	(y4.dd\yy	.	(4.dd\	.	(4.dd\	4.ff/	2dd\	.	(4.ddd\	.
.	.	.	.	.	.	.	.	.	.	8B-\J	.	.	.	.	.	.	.	.	.	.	.	.	.	.	.	.	.	.	.	.	.	.	.	.	.
!	!	!	!	!	!	!	!	!	!	!LO:TX:t=P:problem=mixed beam	!	!	!	!	!	!	!	!	!	!	!	!	!	!	!	!	!	!	!	!	!	!	!	!	!
.	.	.	.	.	.	.	.	.	4r	8BB-/L	.	.	.	.	.	.	.	.	.	.	.	.	.	.	.	.	.	.	.	.	.	.	.	.	.
8A 8AA\	8cc 8f#X 8d/	8A\	o	8d\	.	8f#X/	8cc\	o	.	8A\J	.	8A\	8f#X/	.	.	8cc/)	.	.	8a/	8f#X\	.	.	.	.	8f#X/)	8cc\)yy	.	8cc\)	.	8cc\)	8ff#X/	.	.	8ccc\)	.
=11	=11	=11	=11	=11	=11	=11	=11	=11	=11	=11	=11	=11	=11	=11	=11	=11	=11	=11	=11	=11	=11	=11	=11	=11	=11	=11	=11	=11	=11	=11	=11	=11	=11	=11	=11
*	*^	*	*	*	*	*	*	*	*	*	*	*	*	*	*	*	*	*	*	*	*	*	*	*	*	*	*	*	*	*	*	*	*	*	*
!	!	!	!	!	!	!	!	!	!	!	!LO:TX:t=P:problem=mixed beam	!	!	!	!	!	!	!	!	!	!	!	!	!	!	!	!	!	!	!	!	!	!	!	!	!
4G 4GG/	8ccL 8g/	8d\L	4G\	Bo-	(8d\L	.	(8g/L	(8cc\L	Bo-	2.r	8GG/L	.	4G\	4g/	8g 8d\L	.	8cc/L	8d\L	.	4g/	8g\L	.	8dd/L	8dd\L	.	(4g/	(y8cc/Lyy	.	(8cc/L	.	8cc\L	4gg/	8dd\L	.	(8ccc\L	.
.	8b-/J	8eJ 8c\	.	.	8cJ 8e\)	.	8e/J)	8b-\J	.	.	8G\J	.	.	.	8c\J	.	8b-/J	8e\J	.	.	8c\J	.	8ee/J	8cc\J	.	.	8b-/Jyy	.	8b-/J	.	8b-\J	.	8ee\J	.	8bb-\J)	.
!	!	!	!	!	!	!	!	!	!	!	!LO:TX:t=P:problem=mixed beam	!	!	!	!	!	!	!	!	!	!	!	!	!	!	!	!	!	!	!	!	!	!	!	!	!
4F 4FF/	4a 4f 4c/	2ryy	4F\	-że	4f 4c\	.	4fn/	4a/)	-że	.	8FF/L	.	4F\	4f/	4c\	.	4a/	4f\	.	4a/	4fn\	.	4ff/	4cc\	.	4fn/)	4a/)yy	.	4a/)	.	4a\	4ffn/	4ffn\	.	4aa\	.
.	.	.	.	.	.	.	.	.	.	.	8F\	p	.	.	.	.	.	.	.	.	.	.	.	.	.	.	.	.	.	.	.	.	.	.	.	.
!	!	!	!	!	!	!	!	!	!	!	!	!	!	!	!	!	!	!	!LO:DY:rj	!	!	!	!	!	!	!	!	!LO:DY:rj	!	!LO:DY:rj	!	!	!	!LO:DY:rj	!	!
4F 4FF/	4a 4f 4c/	.	4F\	Niech	4c\	.	4f/	4a/	Niech	.	8FF/	.	4r	4r	4ryy	.	4a/	4f\	p	4a/	4f\	.	4r	4rcyy	.	4f/	4a/yy	py	4a/	p	4r	4aa 4ff\	4ryy	p	4r	.
.	.	.	.	.	.	.	.	.	.	.	8F\J	.	.	.	.	.	.	.	.	.	.	.	.	.	.	.	.	.	.	.	.	.	.	.	.	.
*	*	*	*	*	*	*	*	*	*	*	*	*	*	*v	*v	*	*	*	*	*	*	*	*v	*v	*	*	*	*	*	*	*	*	*	*	*	*
=12	=12	=12	=12	=12	=12	=12	=12	=12	=12	=12	=12	=12	=12	=12	=12	=12	=12	=12	=12	=12	=12	=12	=12	=12	=12	=12	=12	=12	=12	=12	=12	=12	=12	=12
2C 2CC/	2g 2e/	2ryy	4C/	lud	4c\	.	4e/	4g/	lud	2.r	8CC'/L	.	2.r	2.r	.	2g 2e/	2ryy	.	2g 2c/	2ryy	.	2.r	.	2e/	2g/yy	.	2g/	.	2.r	2gg 2ee\	2ryy	.	2.r	.
.	.	.	.	.	.	.	.	.	.	.	(<16C/L	.	.	.	.	.	.	.	.	.	.	.	.	.	.	.	.	.	.	.	.	.	.	.
.	.	.	.	.	.	.	.	.	.	.	16D/JJ	.	.	.	.	.	.	.	.	.	.	.	.	.	.	.	.	.	.	.	.	.	.	.
.	.	.	4C/	któ-	4c\	.	4e/	4g/	któ-	.	8C/L)	.	.	.	.	.	.	.	.	.	.	.	.	.	.	.	.	.	.	.	.	.	.	.
.	.	.	.	.	.	.	.	.	.	.	8C/J	.	.	.	.	.	.	.	.	.	.	.	.	.	.	.	.	.	.	.	.	.	.	.
8FL 8FF\	8a/L	4f\	8F\	-ry	8c\	.	8f/	8a/	-ry	.	8F\L	.	.	.	.	(8a/L	4f\	.	(8a/L	4c\	.	.	.	4f/	(y8a/Lyy	.	(8a/L	.	.	8aa/L	4ff\	.	.	.
8AJ 8AA\	8cc/J	.	8A\	Cię	8c\	.	8f/	8cc\	Cię	.	8A\J	.	.	.	.	8cc/J)	.	.	8f/J)	.	.	.	.	.	8cc/J)yy	.	8cc/J)	.	.	8ccc/J	.	.	.	.
*	*	*	*	*	*	*	*	*	*	*	*	*	*	*	*	*v	*v	*	*	*	*	*	*	*	*	*	*	*	*	*	*	*	*	*
*	*v	*v	*	*	*	*	*	*	*	*	*	*	*	*	*	*	*	*v	*v	*	*	*	*	*	*	*	*	*	*	*	*	*	*
=13	=13	=13	=13	=13	=13	=13	=13	=13	=13	=13	=13	=13	=13	=13	=13	=13	=13	=13	=13	=13	=13	=13	=13	=13	=13	=13	=13	=13	=13	=13	=13
*	*	*	*	*	*	*	*	*	*	*	*	*	*^	*	*	*	*	*	*^	*	*	*	*	*	*	*	*	*	*	*	*
*2\right	*	*	*	*	*	*	*	*	*	*	*	*	*	*	*	*	*	*	*	*	*	*	*	*	*	*	*	*	*	*	*	*	*
!	!	!	!	!	!	!	!	!	!	!LO:TX:t=P:problem=mixed beam	!	!	!	!	!	!	!	!	!	!	!	!	!	!	!	!	!	!	!	!	!	!	!
2c 2C\	2g 2e/	4c\	chwa-	4c\	.	4e/	4g/	chwa-	4r	8c\L	.	4r	4r	4ryy	.	2g 2e/	.	2g 2c/	.	4r	4rcyy	.	2e/	2g/yy	.	2g/	.	4r	2gg/	2ee\	.	4r	.
.	.	.	.	.	.	.	.	.	.	(<16C/L	.	.	.	.	.	.	.	.	.	.	.	.	.	.	.	.	.	.	.	.	.	.	.
.	.	.	.	.	.	.	.	.	.	16D/JJ	.	.	.	.	.	.	.	.	.	.	.	.	.	.	.	.	.	.	.	.	.	.	.
!	!	!	!	!	!	!	!	!	!	!LO:TX:t=P:problem=mixed beam	!	!	!	!	!	!	!	!	!	!	!	!	!	!	!	!	!	!	!	!	!	!	!
.	.	4C/	-li	4c\	.	4e/	4g/	-li	4r	8C/L)	.	4r	4r	4ryy	.	.	.	.	.	4r	4rcyy	.	.	.	.	.	.	4r	.	.	.	4r	.
.	.	.	.	.	.	.	.	.	.	8C/	.	.	.	.	.	.	.	.	.	.	.	.	.	.	.	.	.	.	.	.	.	.	.
!	!	!	!	!	!	!	!	!	!	!	!	!	!	!	!	!	!	!	!LO:DY:rj	!	!	!	!	!	!LO:DY:rj	!	!LO:DY:rj	!	!	!	!LO:DY:rj	!	!LO:DY:rj
4A 4AA/	4cc 4e 4c/	4A\	Twa	4c\	.	4e/	4cc\	Twa	4F\	8AA/	.	4A\	4c/	4F\	.	4cc 4f/	.	4a 4c/	f	4cc/	4cc\	.	4e/	4cc\yy	fy	4cc\	f	4cc\	(4ccc 4ee\	4ryy	f	(4ccc\	f
.	.	.	.	.	.	.	.	.	.	8A\J	.	.	.	.	.	.	.	.	.	.	.	.	.	.	.	.	.	.	.	.	.	.	.
*	*	*	*	*	*	*	*	*	*	*	*	*	*	*	*	*	*	*	*	*	*	*	*	*	*	*	*	*	*v	*v	*	*	*
=14	=14	=14	=14	=14	=14	=14	=14	=14	=14	=14	=14	=14	=14	=14	=14	=14	=14	=14	=14	=14	=14	=14	=14	=14	=14	=14	=14	=14	=14	=14	=14	=14
*	*	*	*	*	*	*	*	*	*	*	*	*	*	*	*	*	*	*^	*	*	*	*	*	*	*	*	*	*	*	*	*	*
!	!	!	!	!	!	!	!	!	!	!LO:TX:t=P:problem=mixed beam	!	!	!	!	!	!	!	!	!	!	!	!	!	!	!	!	!	!	!	!	!	!	!
*	*	*	*	*	*	*	*	*	*tremolo	*	*	*	*	*	*	*	*	*2\right	*	*	*	*	*	*	*	*	*	*	*	*	*	*	*
4F 4FF/	4a 4f 4c/	4F\	ła-	4c\	.	4f/	4a/	ła-	32F\LLL	8FF'/L	.	[4F\	[2c/	[2F\	.	4a 4f/	.	2.a/	[>2c\	.	2cc/	[>2cc\	.	4f/	4a/yy	.	4a/	.	4a\	4aa 4ff\)	.	4aa\)	.
.	.	.	.	.	.	.	.	.	32F\	.	.	.	.	.	.	.	.	.	.	.	.	.	.	.	.	.	.	.	.	.	.	.	.
.	.	.	.	.	.	.	.	.	32F\	.	.	.	.	.	.	.	.	.	.	.	.	.	.	.	.	.	.	.	.	.	.	.	.
.	.	.	.	.	.	.	.	.	32F\	.	.	.	.	.	.	.	.	.	.	.	.	.	.	.	.	.	.	.	.	.	.	.	.
.	.	.	.	.	.	.	.	.	32F\	(16F\L	.	.	.	.	.	.	.	.	.	.	.	.	.	.	.	.	.	.	.	.	.	.	.
.	.	.	.	.	.	.	.	.	32F\	.	.	.	.	.	.	.	.	.	.	.	.	.	.	.	.	.	.	.	.	.	.	.	.
.	.	.	.	.	.	.	.	.	32F\	16G\JJ)	.	.	.	.	.	.	.	.	.	.	.	.	.	.	.	.	.	.	.	.	.	.	.
.	.	.	.	.	.	.	.	.	32F\JJJ	.	.	.	.	.	.	.	.	.	.	.	.	.	.	.	.	.	.	.	.	.	.	.	.
*	*	*	*	*	*	*	*	*	*Xtremolo	*	*	*	*	*	*	*	*	*	*	*	*	*	*	*	*	*	*	*	*	*	*	*	*
4.F 4.FF/	4.a 4.f 4.c/	4.F\	-ska	4.c\	.	4.f/	4.a/	-ska	4F\	8F\L	.	4.F\]	.	.	.	4.a 4.f/	.	.	.	.	.	.	.	4.f/	4.a/yy	.	4.a/	.	4.a\	4.aa 4.ff\	.	4.aa\	.
.	.	.	.	.	.	.	.	.	.	8F\J	.	.	.	.	.	.	.	.	.	.	.	.	.	.	.	.	.	.	.	.	.	.	.
.	.	.	.	.	.	.	.	.	4r	8FF/L	.	.	8c/L]	8F\L]	.	.	.	.	8c\L]	.	8cc/L	8cc\L]	.	.	.	.	.	.	.	.	.	.	.
8F 8FF\	8f 8d 8A/	8F\	wspo-	8A\	.	8d/	8f/	wspo-	.	8F/J	.	8F\	8A/J	8F\J	.	8f 8d/	.	.	8A'>\J	.	8dd/J	8dd\J	.	8f/	8dd\yy	.	8dd\	.	8dd\	8ff 8dd\	.	8ddd\	.
!!LO:PB:g=original
=15	=15	=15	=15	=15	=15	=15	=15	=15	=15	=15	=15	=15	=15	=15	=15	=15	=15	=15	=15	=15	=15	=15	=15	=15	=15	=15	=15	=15	=15	=15	=15	=15	=15
*	*^	*	*	*	*	*	*	*	*	*	*	*	*	*	*	*^	*	*	*	*	*	*	*	*	*	*	*	*	*	*^	*	*	*
*	*	*2\right	*2\right	*	*	*	*	*	*	*tremolo	*	*	*2\right	*	*	*	*	*	*	*	*	*	*	*	*	*	*	*	*	*	*2\right	*	*	*	*2\right	*
!	!	!	!	!	!	!	!	!	!	!	!LO:TX:t=P:problem=mixed beam	!	!	!	!	!	!	!	!	!	!	!	!	!	!	!	!	!	!	!	!	!	!	!	!	!
2G 2GG\	4e/	2c\	(2G\	-mo-	2.G/	.	(>2c/	(>4e/	-mo-	32C/LLL	8GG'/L	.	2G\	(4G/	4E\	.	4e/	2c\	.	(2g/	2c\	.	2ee/	2cc\	.	(>4e/	2cc/yy	.	2cc/	.	2cc\	(4ee/	2cc\	.	2ccc\	.
.	.	.	.	.	.	.	.	.	.	32C/	.	.	.	.	.	.	.	.	.	.	.	.	.	.	.	.	.	.	.	.	.	.	.	.	.	.
.	.	.	.	.	.	.	.	.	.	32C/	.	.	.	.	.	.	.	.	.	.	.	.	.	.	.	.	.	.	.	.	.	.	.	.	.	.
.	.	.	.	.	.	.	.	.	.	32C/	.	.	.	.	.	.	.	.	.	.	.	.	.	.	.	.	.	.	.	.	.	.	.	.	.	.
.	.	.	.	.	.	.	.	.	.	32C/	(16G\L	.	.	.	.	.	.	.	.	.	.	.	.	.	.	.	.	.	.	.	.	.	.	.	.	.
.	.	.	.	.	.	.	.	.	.	32C/	.	.	.	.	.	.	.	.	.	.	.	.	.	.	.	.	.	.	.	.	.	.	.	.	.	.
.	.	.	.	.	.	.	.	.	.	32C/	16A\JJ	.	.	.	.	.	.	.	.	.	.	.	.	.	.	.	.	.	.	.	.	.	.	.	.	.
.	.	.	.	.	.	.	.	.	.	32C/JJJ	.	.	.	.	.	.	.	.	.	.	.	.	.	.	.	.	.	.	.	.	.	.	.	.	.	.
*	*	*	*	*	*	*	*	*	*	*Xtremolo	*	*	*	*	*	*	*	*	*	*	*	*	*	*	*	*	*	*	*	*	*	*	*	*	*	*
!	!	!	!	!	!	!	!	!	!	!	!LO:TX:t=P:problem=mixed beam	!	!	!	!	!	!	!	!	!	!	!	!	!	!	!	!	!	!	!	!	!	!	!	!	!
.	4d/	.	.	.	.	.	.	4d/	.	4C/	8G\L)	.	.	4c/	2D\	.	4d/	.	.	.	.	.	.	.	.	4d/	.	.	.	.	.	4dd/	.	.	.	.
.	.	.	.	.	.	.	.	.	.	.	8G'\	.	.	.	.	.	.	.	.	.	.	.	.	.	.	.	.	.	.	.	.	.	.	.	.	.
4G 4GG\	4g/	4Bn\	4GG/)	.	.	.	4Bn/)	4g/)	.	4r	8GG'</	.	4GG/	4Bn/	.	.	4g/	4Bn\	.	4g/)	4d\	.	4dd 4g/	4ryy	.	4g/	4bn/yy	.	4bn/	.	4bX\	4gg/	4bn\	.	4bbn\	.
.	.	.	.	.	.	.	.	.	.	.	8G'\J	.	.	.	.	.	.	.	.	.	.	.	.	.	.	.	.	.	.	.	.	.	.	.	.	.
*	*	*	*	*	*	*	*	*	*	*	*	*	*	*v	*v	*	*	*	*	*v	*v	*	*v	*v	*	*	*	*	*	*	*	*	*	*	*	*
*	*v	*v	*	*	*	*	*	*	*	*	*	*	*	*	*	*v	*v	*	*	*	*	*	*	*	*	*	*	*	*	*	*	*	*
=16	=16	=16	=16	=16	=16	=16	=16	=16	=16	=16	=16	=16	=16	=16	=16	=16	=16	=16	=16	=16	=16	=16	=16	=16	=16	=16	=16	=16	=16	=16	=16
2G 2C\	2e 2c/	2C/	-że	2G/	.	2c/	2e/	-że	4C/	8C'\L	.	2C/	2c 2E/)	.	2e 2c/	.	2g 2c/	.	2cc 2e/	.	2e/)	2cc/yy	.	2cc/	.	2cc\	2ee/)	2cc\	.	2ccc\	.
.	.	.	.	.	.	.	.	.	.	(16E\L	.	.	.	.	.	.	.	.	.	.	.	.	.	.	.	.	.	.	.	.	.
.	.	.	.	.	.	.	.	.	.	16G\JJ	.	.	.	.	.	.	.	.	.	.	.	.	.	.	.	.	.	.	.	.	.
.	.	.	.	.	.	.	.	.	4r	4c 4C\)	p	.	.	.	.	.	.	.	.	.	.	.	.	.	.	.	.	.	.	.	.
!	!	!	!	!	!	!	!	!	!	!	!	!	!	!	!	!	!	!LO:DY:rj:a	!	!	!	!	!	!	!	!	!	!	!	!	!
4C 4CC/	4r	8.C/	Od-	8.c\	.	4r	4r	.	4r	8.CL 8.CC/	.	4r	4r	.	4r	.	8.cL 8.C/	p	4r	.	4r	4ryy	.	4r	.	4r	4r	4ryy	.	4r	.
.	.	16C/	-puść	16c\	.	.	.	.	.	16CJk 16CC/	.	.	.	.	.	.	16cJk 16C/	.	.	.	.	.	.	.	.	.	.	.	.	.	.
*	*	*	*	*	*	*	*	*	*	*	*	*	*	*	*	*	*	*	*	*	*	*	*	*	*	*	*v	*v	*	*	*
=17	=17	=17	=17	=17	=17	=17	=17	=17	=17	=17	=17	=17	=17	=17	=17	=17	=17	=17	=17	=17	=17	=17	=17	=17	=17	=17	=17	=17	=17	=17
[2.C [2.CC/	4r	[2.C/	nam	[2.c\	.	4r	4r	.	2.r	[2.C [2.CC/	.	2.r	2.r	.	4r	.	[2.c [2.C/	.	2.r	.	4r	4r	.	4r	.	2.r	4r	.	2.r	.
.	4r	.	.	.	.	4r	4r	.	.	.	.	.	.	.	4r	.	.	.	.	.	4r	4r	.	4r	.	.	4r	.	.	.
!	!	!	!	!	!	!	!	!	!	!	!	!	!	!	!	!LO:DY:rj	!	!	!	!	!	!	!LO:DY:rj	!	!	!	!	!LO:DY:rj	!	!
.	(8gL 8e/	.	.	.	.	8e/	8g/	Od-	.	.	.	.	.	.	(8gL 8e/	p	.	.	.	.	(>8e/L	8g/L	p	(>8g/L	.	.	(8ggL 8ee\	p	.	.
.	8aJ 8f/)	.	.	.	.	8f/	8a/	-puść	.	.	.	.	.	.	8aJ 8f/)	.	.	.	.	.	8f/J	8a/J	.	8a/J	.	.	8aaJ 8ff\	.	.	.
=18	=18	=18	=18	=18	=18	=18	=18	=18	=18	=18	=18	=18	=18	=18	=18	=18	=18	=18	=18	=18	=18	=18	=18	=18	=18	=18	=18	=18	=18	=18
2.C] 2.CC/]	(>4.b- 4.g/	2C/]	.	2c\]	.	(4.g/	(4.b-/	nam	2.r	2.C] 2.CC/]	.	2.r	2.r	.	(4.b- 4.g/	.	(2.c_ 2.C/]	.	2.r	.	4.g/	(y>4.b-/yy	.	4.b-/	.	2.r	4.bb- 4.gg\)	.	2.r	.
.	8aL 8f#X/	.	.	.	.	8f#X/)	8a/)	.	.	.	.	.	.	.	8a 8f#X/	.	.	.	.	.	8f#X/	8a/)yy	.	8a/)	.	.	(8aa 8ff#X\	.	.	.
.	8b- 8g/	8C/	na-	8c\	.	8g/	8b-\	na-	.	.	.	.	.	.	8b-L 8g/)	.	.	.	.	.	8g/L	8b-/Lyy	.	8b-/L	.	.	8bb-L 8gg\	.	.	.
.	8ccJ 8e/	8C/	-sze	8c\	.	8a/	8cc\	-sze	.	.	.	.	.	.	8ccJ 8e/	.	.	.	.	.	8e/J)	8cc/Jyy	.	8cc/J	.	.	8cccJ 8ee\)	.	.	.
=19	=19	=19	=19	=19	=19	=19	=19	=19	=19	=19	=19	=19	=19	=19	=19	=19	=19	=19	=19	=19	=19	=19	=19	=19	=19	=19	=19	=19	=19	=19
*	*	*	*	*	*	*	*	*	*	*	*	*	*	*	*^	*	*	*	*^	*	*	*	*	*	*	*	*	*	*	*
2F 2FF/	2a 2f/)	4F\	wi-	4c\	.	4fn/	4a/	wi-	2.r	2F 2FF/	.	2.r	2.r	.	2a/	2f\	.	2c] 2F/)	.	4r	2ryy	.	2f/	2a/yy	.	2a/	.	2.r	2aa 2ff\	.	2.r	.
.	.	4F\	-ny	4c\	.	4f/	4a/	-ny	.	.	.	.	.	.	.	.	.	.	.	4r	.	.	.	.	.	.	.	.	.	.	.	.
!	!	!	!	!	!	!	!	!	!	!	!	!	!	!	!	!	!	!	!	!	!	!LO:DY:rj	!	!	!	!	!	!	!	!	!	!
4D 4DD/	4r	4D\	Gdy	4d\	Gdy	4r	4r	.	.	8.DL 8.DD/	.	.	.	.	4r	4ryy	.	4r	.	8.dd/L	8.dd\L	p	4r	4ryy	.	4r	.	.	4r	.	.	.
.	.	.	.	.	.	.	.	.	.	16DJk 16DD/	.	.	.	.	.	.	.	.	.	16dd/Jk	16dd\Jk	.	.	.	.	.	.	.	.	.	.	.
*	*	*	*	*	*	*	*	*	*	*	*	*	*	*	*v	*v	*	*	*	*	*	*	*	*	*	*	*	*	*	*	*	*
!!LO:PB:g=original
=20	=20	=20	=20	=20	=20	=20	=20	=20	=20	=20	=20	=20	=20	=20	=20	=20	=20	=20	=20	=20	=20	=20	=20	=20	=20	=20	=20	=20	=20	=20	=20
*	*	*	*	*	*	*	*	*	*	*	*	*	*	*	*	*	*	*	*	*	*	*	*	*	*	*	*	*^	*	*	*
[2.D [2.DD/	4r	[2.D\	sta-	[2.d\	.	4r	4r	.	2.r	[2.D [2.DD/	.	2.r	2.r	.	4r	.	2.r	.	[2.dd/	2.dd\	.	4r	4r	.	4r	.	2.r	4r	4ryy	.	4r	.
.	4r	.	.	.	.	4r	4r	.	.	.	.	.	.	.	4r	.	.	.	.	.	.	4r	4r	.	4r	.	.	4r	4ryy	.	4r	.
.	(8aL 8f#X/	.	.	.	.	(8f#X/L	(8a/L	Gdy	.	.	.	.	.	.	(8aL 8f#X/	.	.	.	.	.	.	(8f#X/L	(<8a/L	.	(>8a/L	.	.	8ff#X/L	4dd\	.	(8aa\L	.
.	8b-J 8g/)	.	.	.	.	8g/J)	8b-/J)	.	.	.	.	.	.	.	8b-J 8g/)	.	.	.	.	.	.	8g/J	8b-/J	.	8b-/J	.	.	8gg/J	.	.	8bb-\J)	.
=21	=21	=21	=21	=21	=21	=21	=21	=21	=21	=21	=21	=21	=21	=21	=21	=21	=21	=21	=21	=21	=21	=21	=21	=21	=21	=21	=21	=21	=21	=21	=21	=21
*	*^	*	*	*	*	*	*	*	*	*	*	*	*	*	*	*	*	*	*	*	*	*	*	*	*	*	*	*	*	*	*	*
2.D] 2.DD/]	(4.cc 4.a/	2.d\	2D\]	.	2d\]	.	(4.a/	(4.cc\	sta-	2.r	2.D] 2.DD/]	.	2.r	2.r	.	(4.cc 4.a/	.	2.r	.	2.dd/]	2.dd\	.	(>4.a/)	4.cc/)yy	.	4.cc/)	.	2.r	(4.aa/	[2.dd\	.	(4.ccc\	.
.	8bnL 8g#X/	.	.	.	.	.	8g#X/)	8bn\)	.	.	.	.	.	.	.	8bnL 8g#X/	.	.	.	.	.	.	8g#X/L	(y>8bn/Lyy	.	(>8bn/L	.	.	8gg#X/L	.	.	8bbn\L	.
.	8cc 8a/	.	8D\	-niem	8d\	.	8a/	8cc\	-niem	.	.	.	.	.	.	8cc 8a/	.	.	.	.	.	.	8a/	8cc/yy	.	8cc/	.	.	8aa/	.	.	8ccc\	.
.	8ddJ 8f#X/)	.	8D\	przed	8d\	.	8f#X/	8dd\	przed	.	.	.	.	.	.	8ddJ 8f#X/)	.	.	.	.	.	.	8f#X/J)	8dd/J)yy	.	8dd/J)	.	.	8ff#X/J	.	.	8ddd\J	.
*	*v	*v	*	*	*	*	*	*	*	*	*	*	*	*	*	*	*	*	*	*	*	*	*	*	*	*	*	*	*	*	*	*	*
=22	=22	=22	=22	=22	=22	=22	=22	=22	=22	=22	=22	=22	=22	=22	=22	=22	=22	=22	=22	=22	=22	=22	=22	=22	=22	=22	=22	=22	=22	=22	=22	=22
*	*	*	*	*	*	*	*	*	*	*	*	*	*	*	*^	*	*^	*	*	*	*	*	*	*	*	*	*	*	*	*	*	*
2G 2GG/	2b- 2g 2d/	4G\	To-	4d\	.	4g/	4b-\	To-	4r	2G 2GG/	.	4r	4r	.	2b-/	2g\	.	4r	4ryy	.	2dd/	2dd\	.	2g/	2b-X/yy	.	2b-X/	.	4r	2gg/)	2dd\]	.	2bb-\)	.
.	.	4G\	-bą	4d\	.	4g/	4b-\	-bą	4r	.	.	4r	4r	.	.	.	.	4r	4ryy	.	.	.	.	.	.	.	.	.	4r	.	.	.	.	.
!	!	!	!	!	!	!	!	!	!	!	!	!	!	!LO:DY:rj	!	!	!	!	!	!	!	!	!	!	!	!	!	!	!	!	!	!	!	!
4F 4FF/	4cc 4a 4f/	8F\	Bo-	8f\	.	8a/	8cc\	Bo-	4F\	4F 4FF/	.	4F\	4c 4A\	f	4cc 4f/	4f/yy	.	4a/	4f\	.	4r	4ryy	.	4a/	(y>4cc/yy	.	(>4cc/	.	(4cc\	(4aa 4cc\	4ryy	.	(4ccc\	.
.	.	8F\	-że	8f\	.	8a/	8cc\	-że	.	.	.	.	.	.	.	.	.	.	.	.	.	.	.	.	.	.	.	.	.	.	.	.	.	.
*	*	*	*	*	*	*	*	*	*	*	*	*	*	*	*	*	*	*	*	*	*v	*v	*	*	*	*	*	*	*	*	*	*	*	*
=23	=23	=23	=23	=23	=23	=23	=23	=23	=23	=23	=23	=23	=23	=23	=23	=23	=23	=23	=23	=23	=23	=23	=23	=23	=23	=23	=23	=23	=23	=23	=23	=23	=23
*	*	*	*	*	*	*	*	*	*	*	*	*	*^	*	*	*	*	*	*	*	*	*	*	*	*	*	*	*	*	*	*	*	*
*	*	*	*	*	*	*	*	*	*tremolo	*2\right	*	*	*	*	*	*	*	*	*	*	*	*	*	*	*	*	*	*	*	*	*	*	*	*
2B- 2BB-\	2dd 2b- 2f/	4B-\	w_Trój-	4f\	.	4b-\	4dd\	w_Troj-	32F\LLL	2B- 2BB-\	.	2B-\	2d/	2B-\	.	4dd/	2f\	.	2b-/	2f\	.	2.r	.	(>2b-/	4dd/)yy	.	4dd/)	.	4dd\)	4bb- 4dd\)	4ryy	.	4ddd\)	.
.	.	.	.	.	.	.	.	.	32F\	.	.	.	.	.	.	.	.	.	.	.	.	.	.	.	.	.	.	.	.	.	.	.	.	.
.	.	.	.	.	.	.	.	.	32F\	.	.	.	.	.	.	.	.	.	.	.	.	.	.	.	.	.	.	.	.	.	.	.	.	.
.	.	.	.	.	.	.	.	.	32F\	.	.	.	.	.	.	.	.	.	.	.	.	.	.	.	.	.	.	.	.	.	.	.	.	.
.	.	.	.	.	.	.	.	.	32F\	.	.	.	.	.	.	.	.	.	.	.	.	.	.	.	.	.	.	.	.	.	.	.	.	.
.	.	.	.	.	.	.	.	.	32F\	.	.	.	.	.	.	.	.	.	.	.	.	.	.	.	.	.	.	.	.	.	.	.	.	.
.	.	.	.	.	.	.	.	.	32F\	.	.	.	.	.	.	.	.	.	.	.	.	.	.	.	.	.	.	.	.	.	.	.	.	.
.	.	.	.	.	.	.	.	.	32F\JJJ	.	.	.	.	.	.	.	.	.	.	.	.	.	.	.	.	.	.	.	.	.	.	.	.	.
*	*	*	*	*	*	*	*	*	*Xtremolo	*	*	*	*	*	*	*	*	*	*	*	*	*	*	*	*	*	*	*	*	*	*	*	*	*
.	.	4B-\	-cy	4d\	.	4b-\	4dd\	-cy	4F\	.	.	.	.	.	.	4dd/	.	.	.	.	.	.	.	.	(y>4dd/yy	.	(>4dd/	.	(4dd\	(4bb-/	2dd\	.	(4ddd\	.
4F#X 4FF#X/	4a 4d/	4F#X\	ie-	4d\	.	4a/	4a/	je-	4r	4F#X 4FF#X/	.	4F#X\	4d/	4A\	.	4a/	4f#X\	.	4a/	4f#X\	.	.	.	4a/)	4a/)yy	.	4a/)	.	4a\)	4aa/	.	.	4aa\)	.
=24	=24	=24	=24	=24	=24	=24	=24	=24	=24	=24	=24	=24	=24	=24	=24	=24	=24	=24	=24	=24	=24	=24	=24	=24	=24	=24	=24	=24	=24	=24	=24	=24	=24	=24
*	*^	*	*	*	*	*	*	*	*	*	*	*	*	*	*	*	*	*	*	*	*	*^	*	*	*	*	*	*	*	*	*	*	*	*
2G 2GG\	4cc/	2g 2d\	4G\	-dy-	4d\	.	4g/	4cc\	-dy-	2.r	2G 2GG/	.	4G\	2d/	2G\	.	(4cc/	2g\	.	2g/	2g\	.	4r	4ryy	.	(2g/	4cc/yy	.	4cc/	.	4cc\	2gg/)	2dd\	.	4ccc\	.
.	4b-/	.	4G\	-ny	4d\	.	4g/	4b-\	-ny	.	.	.	4GG/	.	.	.	4b-/)	.	.	.	.	.	4r	4ryy	.	.	(y>4b-/yy	.	(>4b-/	.	(4b-\	.	.	.	(4bb-\	.
4BB-/	4g 4d 4B-/	4ryy	8B-\	Daj	8B-\	.	8d/	8g/	Daj	.	4B- 4BB-\	.	4BB-/	4B-/	4G\	.	4g 4d/	4ryy	.	4g/	4g\	.	4dd/	4dd\	.	4d/)	4g/)yy	.	4g/)	.	4g\)	4gg 4dd\	4ryy	.	4gg\)	.
.	.	.	8B-\	nam	8B-\	.	8d/	8g/	nam	.	.	.	.	.	.	.	.	.	.	.	.	.	.	.	.	.	.	.	.	.	.	.	.	.	.	.
*	*v	*v	*	*	*	*	*	*	*	*	*	*	*	*v	*v	*	*	*	*	*	*	*	*	*	*	*	*	*	*	*	*	*	*	*	*	*
!!LO:PB:g=original
=25	=25	=25	=25	=25	=25	=25	=25	=25	=25	=25	=25	=25	=25	=25	=25	=25	=25	=25	=25	=25	=25	=25	=25	=25	=25	=25	=25	=25	=25	=25	=25	=25	=25	=25
*^	*	*	*	*	*	*	*	*	*	*	*	*	*	*	*	*	*	*	*	*	*	*	*	*	*	*	*	*	*	*	*	*	*	*
4A/	2C\	8fL 8c/	8c\	miesz-	8A/	.	8c/	8f/	miesz-	8C/L	2c 2C\	.	2C/	4A 4F'/	.	8f/L	4c\	.	2a/	2f\	.	2ff/	2cc\	.	(2c/	8f'/Lyy	.	8f'/L	.	8f'/L	8ff/L	8cc\L	.	8ff'\L	.
.	.	8c/J	8c\	-kać	8A/	.	8c/	8c/	-kać	8C/J	.	.	.	.	.	8c/J	.	.	.	.	.	.	.	.	.	8c'/Jyy	.	8c'/J	.	8c'/J	8cc/J	8cc\J	.	8cc'\J	.
4ryy	.	4a 4f 4c/	2C/	z_So-	(4c\	.	(4c/	(4a/	z_So-	4C/	.	.	.	(4c 4A\	.	4a/	4f\	.	.	.	.	.	.	.	.	(y>4a/yy	.	(>4a/	.	(4a\	(4ff/	4cc\	.	(4aa\	.
4C 4CC/	4ryy	4g 4e 4B-/	.	.	4B-\)	.	4e/)	4g/)	.	4C/	4C 4CC/	.	4C/	4B- 4G\	.	4g/	4e\	.	4g 4c/	4ryy	.	4ee/	4cc\	.	4e/)	4g/yy	.	4g/	.	4g\)	4ee/	4b-\	.	4gg\	.
*	*	*	*	*	*	*	*	*	*	*	*	*	*	*	*	*v	*v	*	*	*	*	*	*	*	*	*	*	*	*	*	*	*	*	*	*
*v	*v	*	*	*	*	*	*	*	*	*	*	*	*	*	*	*	*	*v	*v	*	*	*	*	*	*	*	*	*	*	*	*	*	*	*
=26	=26	=26	=26	=26	=26	=26	=26	=26	=26	=26	=26	=26	=26	=26	=26	=26	=26	=26	=26	=26	=26	=26	=26	=26	=26	=26	=26	=26	=26	=26	=26	=26
4F 4FF/	4f 4A/	4F\	-bą.	4A\	.	4f/	4f/	-bą.	4F\	4F 4FF/	.	4F\	4A 4F/)	.	4f/	.	4f 4A/	.	4ff/	4cc\	.	4f/	4f/)yy	.	4f/)	.	4f\	4ff/)	4a\	.	4ff\)	.
4ryy	4ryy	4r	.	4r	.	4r	4r	.	4r	4r	.	4r	4r	.	4r	.	2ryy	.	4r	4ryy	p	4r	4ryy	.	4r	.	4r	4r	4ryy	.	4r	.
!	!	!	!	!	!	!	!	!	!	!	!LO:DY:rj	!	!	!	!	!	!	!	!	!	!	!	!	!	!	!	!	!	!	!	!	!
4C/	4c/	8C/	Od-	8c\	.	8c/	8c/	Od-	4r	8C/L	p	4r	4r	.	4r	.	.	.	8cc/L	8cc\L	.	4r	4ryy	.	4r	.	4r	4r	4ryy	.	4r	.
.	.	8C/	-puść	8c\	.	8c/	8c/	-puść	.	8C/J	.	.	.	.	.	.	.	.	8cc/J	8cc\J	.	.	.	.	.	.	.	.	.	.	.	.
*	*	*	*	*	*	*	*	*	*	*	*	*	*	*	*	*	*	*	*	*	*	*	*	*	*	*	*	*v	*v	*	*	*
=27	=27	=27	=27	=27	=27	=27	=27	=27	=27	=27	=27	=27	=27	=27	=27	=27	=27	=27	=27	=27	=27	=27	=27	=27	=27	=27	=27	=27	=27	=27	=27
2C 2CC/	2c/	2C/	nam	2c\	.	2c/	2c/	nam	2.r	2c 2C\	.	2.r	2.r	.	2.r	.	2.ryy	.	2cc/	2cc\	.	2.r	2.ryy	.	2.r	.	2.r	2.r	.	2.r	.
4C/	4c/	8C/	od-	8c\	.	8c/	8c/	od-	.	8C/L	.	.	.	.	.	.	.	.	8cc/L	8cc\L	.	.	.	.	.	.	.	.	.	.	.
.	.	8C/	-puść	8c\	.	8c/	8c/	-puść	.	8C/J	.	.	.	.	.	.	.	.	8cc/J	8cc\J	.	.	.	.	.	.	.	.	.	.	.
=28	=28	=28	=28	=28	=28	=28	=28	=28	=28	=28	=28	=28	=28	=28	=28	=28	=28	=28	=28	=28	=28	=28	=28	=28	=28	=28	=28	=28	=28	=28	=28
*	*	*	*	*	*	*	*	*	*	*	*	*	*	*	*^	*	*	*	*	*	*	*	*	*	*	*	*	*	*	*	*
2C 2CC/	2c/	2C/	nam	2c\	.	2c/	2c/	nam	4r	2c 2C\	.	4r	4r	.	4r	4ryy	.	4ryy	.	2cc/	2cc\	.	4r	4ryy	.	4r	.	4r	4r	.	4r	.
.	.	.	.	.	.	.	.	.	4r	.	.	4r	4r	.	4r	4ryy	.	4ryy	.	.	.	.	4r	4ryy	.	4r	.	4r	4r	.	4r	.
!	!	!	!	!	!	!	!	!	!	!	!LO:DY:rj	!	!	!	!	!	!	!	!	!	!	!LO:DY:rj	!	!	!	!	!	!	!	!LO:DY:rj	!	!
4D-X 4DD-X/	4ff 4a-X 4f/	8D-X/	na-	8f\	.	8f/	8ff\	na-	8F\L	8d-XL 8D-X\	f	8D-X\L	8fL 8A-X\	.	8ff/L	8f/L	.	8a-XL 8f\	.	8dd-X\L	4ryy	f	8f/L	8ff'\Lyy	.	8ff'\L	.	8ff'\L	8ff\L	f	8fff'\L	.
.	.	8D-/	-sze	8f\	.	8f/	8ff\	-sze	8F\J	8d-J 8D-\	.	8D-\J	8fJ 8A-\	.	8ff/J	8f/J	.	8a-J 8f\	.	8dd-\J	.	.	8f/J	8ff'\Jyy	.	8ff'\J	.	8ff'\J	8ff\J	.	8fff'\J	.
*	*	*	*	*	*	*	*	*	*	*	*	*	*	*	*	*	*	*	*	*v	*v	*	*	*	*	*	*	*	*	*	*	*
=29	=29	=29	=29	=29	=29	=29	=29	=29	=29	=29	=29	=29	=29	=29	=29	=29	=29	=29	=29	=29	=29	=29	=29	=29	=29	=29	=29	=29	=29	=29	=29
*	*	*	*	*	*	*	*	*	*	*	*	*	*^	*	*	*	*	*^	*	*	*	*	*	*	*	*	*	*	*	*	*
*	*	*	*	*	*	*	*	*	*tremolo	*	*	*	*	*	*	*	*	*	*	*	*	*	*	*	*	*	*	*	*	*	*	*	*
2D-X 2DD-X/	4ff 4a-X 4f/	4D-X/	wi-	4f\	.	4f/	4ff\	wi-	32F\LLL	2d-X 2D-X\	.	2D-X\	4f 4A-X/	2ryy	.	4ff/	2f\	.	2a-X/	2f\	.	2dd-X\	.	2f/	4ff\yy	.	4ff\	.	(4ff\	([<4ff\	.	(4fff\	.
.	.	.	.	.	.	.	.	.	32F\	.	.	.	.	.	.	.	.	.	.	.	.	.	.	.	.	.	.	.	.	.	.	.	.
.	.	.	.	.	.	.	.	.	32F\	.	.	.	.	.	.	.	.	.	.	.	.	.	.	.	.	.	.	.	.	.	.	.	.
.	.	.	.	.	.	.	.	.	32F\	.	.	.	.	.	.	.	.	.	.	.	.	.	.	.	.	.	.	.	.	.	.	.	.
.	.	.	.	.	.	.	.	.	32F\	.	.	.	.	.	.	.	.	.	.	.	.	.	.	.	.	.	.	.	.	.	.	.	.
.	.	.	.	.	.	.	.	.	32F\	.	.	.	.	.	.	.	.	.	.	.	.	.	.	.	.	.	.	.	.	.	.	.	.
.	.	.	.	.	.	.	.	.	32F\	.	.	.	.	.	.	.	.	.	.	.	.	.	.	.	.	.	.	.	.	.	.	.	.
.	.	.	.	.	.	.	.	.	32F\JJJ	.	.	.	.	.	.	.	.	.	.	.	.	.	.	.	.	.	.	.	.	.	.	.	.
*	*	*	*	*	*	*	*	*	*Xtremolo	*	*	*	*	*	*	*	*	*	*	*	*	*	*	*	*	*	*	*	*	*	*	*	*
.	4a- 4f/	4D-/	-ny	4f\	.	4f/	4a-X/	-ny	4F\	.	.	.	4A- 4F/	.	.	4a-X/	.	.	.	.	.	.	.	.	4a-X/yy	.	4a-X/	.	4a-X\)	4aa-X 4ff\])	.	4aa-X\)	.
4D- 4DD-/	4b- 4f/	8D-/	daj	8f\	.	8f/	8b-\	daj	4r	8d-L 8D-\	.	8D-\L	8B-/L	8F\L	.	8b-/L	8f\L	.	8b-/L	8f\L	.	8dd-\L	.	8f/L	8b-/Lyy	.	8b-/L	.	8b-'\L	8bb-L 8ff\	.	8bb-'\L	.
.	.	8D-/	nam	8f\	.	8f/	8b-\	nam	.	8d-J 8D-\	.	8D-\J	8B-/J	8F\J	.	8b-/J	8f\J	.	8b-/J	8f\J	.	8dd-\J	.	8f/J	8b-/Jyy	.	8b-/J	.	8b-'\J	8bb-J 8ff\	.	8bb-'\J	.
=30	=30	=30	=30	=30	=30	=30	=30	=30	=30	=30	=30	=30	=30	=30	=30	=30	=30	=30	=30	=30	=30	=30	=30	=30	=30	=30	=30	=30	=30	=30	=30	=30	=30
*	*^	*	*	*	*	*	*	*	*	*	*	*	*	*	*	*	*	*	*	*	*	*^	*	*	*	*	*	*	*	*^	*	*	*
*	*	*	*	*	*	*	*	*	*	*tremolo	*	*	*	*	*	*	*	*	*	*	*	*	*	*	*	*	*	*	*	*	*	*	*	*	*	*
2.C 2.CC/	8ccL 8an 8f/	4ryy	8C/	miesz-	8f\	.	8an/	8cc\	miesz-	32C/LLL	2c 2C\	.	4C/	8c/L	8An\L	.	(4a/	2f\	.	4an/	4f\	.	8cc'\L	2ryy	.	(8an/L	(y8cc'/Lyy	.	(8cc'/L	.	(8cc\L	4aan 4ff\	4ryy	.	(8ccc\L	.
.	.	.	.	.	.	.	.	.	.	32C/	.	.	.	.	.	.	.	.	.	.	.	.	.	.	.	.	.	.	.	.	.	.	.	.	.	.
.	.	.	.	.	.	.	.	.	.	32C/	.	.	.	.	.	.	.	.	.	.	.	.	.	.	.	.	.	.	.	.	.	.	.	.	.	.
.	.	.	.	.	.	.	.	.	.	32C/	.	.	.	.	.	.	.	.	.	.	.	.	.	.	.	.	.	.	.	.	.	.	.	.	.	.
.	8aJ 8f 8c/	.	8C/	-kać	8c\	.	8f/	8an/	-kać	32C/	.	.	.	8A/J	8F\J	.	.	.	.	.	.	.	8cc\J	.	.	8f/J)	8an/J)yy	.	8an/J)	.	8an\J)	.	.	.	8aan\J)	.
.	.	.	.	.	.	.	.	.	.	32C/	.	.	.	.	.	.	.	.	.	.	.	.	.	.	.	.	.	.	.	.	.	.	.	.	.	.
.	.	.	.	.	.	.	.	.	.	32C/	.	.	.	.	.	.	.	.	.	.	.	.	.	.	.	.	.	.	.	.	.	.	.	.	.	.
.	.	.	.	.	.	.	.	.	.	32C/JJJ	.	.	.	.	.	.	.	.	.	.	.	.	.	.	.	.	.	.	.	.	.	.	.	.	.	.
*	*	*	*	*	*	*	*	*	*	*Xtremolo	*	*	*	*	*	*	*	*	*	*	*	*	*	*	*	*	*	*	*	*	*	*	*	*	*	*
.	4g 4f/	2c\	2C/	z_So-	2c\	.	4f/	(4g/	z_So-	4C/	.	.	2C/	4G/	4F\	.	2g/	.	.	2g 2c/	2ryy	.	4cc\	.	.	(4f/	(y4g/yy	.	(4g/	.	(4g\	2gg/	(>4ff\	.	(4gg\	.
.	4cc 4e/	.	.	.	.	.	4e/	4cc\)	.	4C/	4C 4CC/	.	.	4c/	4E\	.	.	4e\	.	.	.	.	4ee/	4cc\	.	4e/)	4cc/)yy	.	4cc/)	.	4cc\)	.	4ee\)	.	4ccc\)	.
*	*v	*v	*	*	*	*	*	*	*	*	*	*	*	*	*	*	*	*	*	*v	*v	*	*	*	*	*	*	*	*	*	*	*v	*v	*	*	*
!!LO:PB:g=original
=31	=31	=31	=31	=31	=31	=31	=31	=31	=31	=31	=31	=31	=31	=31	=31	=31	=31	=31	=31	=31	=31	=31	=31	=31	=31	=31	=31	=31	=31	=31	=31	=31	=31
!	!	!	!	!	!	!	!	!	!	!	!	!	!	!	!	!	!LO:TX:a:t=P:problem=brak zakończenia łuku	!	!	!	!	!	!	!	!	!	!	!	!	!	!	!	!
*	*	*	*	*	*	*	*	*	*tremolo	*	*	*	*	*	*	*	*	*	*	*	*	*	*	*	*	*	*	*	*	*	*	*	*
2D 2DD/	2a 2f/	2D\	-bą	2f\	.	2f/	2a/	-bą	32F\LLL	2D 2DD/	.	2D/	2A/	2F\	.	2f/	2f\)	.	2f 2A/	.	2ff/	2dd\	.	2f/	2a/	.	2a/	.	2a\	2aa 2ff\	.	2aa\	.
.	.	.	.	.	.	.	.	.	32F\	.	.	.	.	.	.	.	.	.	.	.	.	.	.	.	.	.	.	.	.	.	.	.	.
.	.	.	.	.	.	.	.	.	32F\	.	.	.	.	.	.	.	.	.	.	.	.	.	.	.	.	.	.	.	.	.	.	.	.
.	.	.	.	.	.	.	.	.	32F\	.	.	.	.	.	.	.	.	.	.	.	.	.	.	.	.	.	.	.	.	.	.	.	.
.	.	.	.	.	.	.	.	.	32F\	.	.	.	.	.	.	.	.	.	.	.	.	.	.	.	.	.	.	.	.	.	.	.	.
.	.	.	.	.	.	.	.	.	32F\	.	.	.	.	.	.	.	.	.	.	.	.	.	.	.	.	.	.	.	.	.	.	.	.
.	.	.	.	.	.	.	.	.	32F\	.	.	.	.	.	.	.	.	.	.	.	.	.	.	.	.	.	.	.	.	.	.	.	.
.	.	.	.	.	.	.	.	.	32F\JJJ	.	.	.	.	.	.	.	.	.	.	.	.	.	.	.	.	.	.	.	.	.	.	.	.
*	*	*	*	*	*	*	*	*	*Xtremolo	*	*	*	*	*	*	*	*	*	*	*	*	*	*	*	*	*	*	*	*	*	*	*	*
.	.	.	.	.	.	.	.	.	4F\	.	.	.	.	.	.	.	.	.	.	.	.	.	.	.	.	.	.	.	.	.	.	.	.
4BBn 4BBBn/	4dd 4a-X 4f/	8BBn/	Daj	8f\	.	8a-X/	8dd\	Daj	4r	8BBnL 8BBBn/	.	8BBn/L	8d 8F\L	4ryy	.	8a-XL 8d/	4ryy	.	8fL 8A-X/	.	4ff/	4dd\	.	8a-X/L	8dd\L	.	8dd'\L	.	8dd\L	8aa-XL 8ff\	.	8ddd'\L	.
.	.	8BB/	nam	8f\	.	8a-/	8dd\	nam	.	8BBJ 8BBB/	.	8BB/J	8d 8F\J	.	.	8a-J 8d/	.	.	8fJ 8A-/	.	.	.	.	8a-/J	8dd\J	.	8dd'\J	.	8dd\J	8aa-J 8ff\	.	8ddd'\J	.
=32	=32	=32	=32	=32	=32	=32	=32	=32	=32	=32	=32	=32	=32	=32	=32	=32	=32	=32	=32	=32	=32	=32	=32	=32	=32	=32	=32	=32	=32	=32	=32	=32	=32
*	*^	*	*	*	*	*	*	*	*	*	*	*	*	*	*	*	*	*	*	*	*	*	*	*	*	*	*	*	*	*^	*	*	*
*	*	*	*	*	*	*	*	*	*	*tremolo	*	*	*	*	*	*	*	*	*	*	*	*	*	*	*	*	*	*	*	*	*	*	*	*	*
2.C 2.CC/	8ccL 8a 8f/	4ryy	8C/	miesz-	8f\	.	8an/	8cc\	miesz-	32C/LLL	2C 2CC/	.	2C/	8c/L	2F\	.	8anL 8c/	4ryy	.	4f 4An/	.	4ff/	2cc\	.	8an/L	8cc/L	.	8cc/L	.	8cc\L	4aan 4ff\	4ryy	.	8ccc'\L	.
.	.	.	.	.	.	.	.	.	.	32C/	.	.	.	.	.	.	.	.	.	.	.	.	.	.	.	.	.	.	.	.	.	.	.	.	.
.	.	.	.	.	.	.	.	.	.	32C/	.	.	.	.	.	.	.	.	.	.	.	.	.	.	.	.	.	.	.	.	.	.	.	.	.
.	.	.	.	.	.	.	.	.	.	32C/	.	.	.	.	.	.	.	.	.	.	.	.	.	.	.	.	.	.	.	.	.	.	.	.	.
.	8anJ 8f/	.	8C/	-kać	8c\	.	8f/	8a/	-kać	32C/	.	.	.	8A/J	.	.	8aJ 8c/	.	.	.	.	.	.	.	8f/J	8a/J	.	8a/J	.	8a\J	.	.	.	8aa'\J	.
.	.	.	.	.	.	.	.	.	.	32C/	.	.	.	.	.	.	.	.	.	.	.	.	.	.	.	.	.	.	.	.	.	.	.	.	.
.	.	.	.	.	.	.	.	.	.	32C/	.	.	.	.	.	.	.	.	.	.	.	.	.	.	.	.	.	.	.	.	.	.	.	.	.
.	.	.	.	.	.	.	.	.	.	32C/JJJ	.	.	.	.	.	.	.	.	.	.	.	.	.	.	.	.	.	.	.	.	.	.	.	.	.
*	*	*	*	*	*	*	*	*	*	*Xtremolo	*	*	*	*	*	*	*	*	*	*	*	*	*	*	*	*	*	*	*	*	*	*	*	*	*
.	4g/	4f\	2C/	z_So-	2c\	.	4f/	(4g/	z_So-	4C/	.	.	.	4G/	.	.	2g/	4c\	.	2g 2c/	.	4ff/	.	.	4f/	4g/	.	4g/	.	4g\	2gg/	(>4ff\	.	4gg\	.
.	4cc/	4e\	.	.	.	.	4e/	4cc\)	.	4C/	4C 4CC/	.	4C/	4c/	4E\	.	.	4e\	.	.	.	4ee/	4cc\	.	4e/	4cc/	.	4cc/	.	4cc\	.	4ee\)	.	4ccc\	.
*	*v	*v	*	*	*	*	*	*	*	*	*	*	*	*	*	*	*	*	*	*	*	*	*	*	*	*	*	*	*	*	*v	*v	*	*	*
=33	=33	=33	=33	=33	=33	=33	=33	=33	=33	=33	=33	=33	=33	=33	=33	=33	=33	=33	=33	=33	=33	=33	=33	=33	=33	=33	=33	=33	=33	=33	=33	=33	=33
!	!	!	!	!	!	!	!	!	!	!	!	!	!	!	!	!	!	!	!	!	!	!	!	!	!	!	!	!	!LO:TX:t=P:problem=mixed beam	!LO:TX:t=P:problem=mixed beam	!	!LO:TX:t=P:problem=mixed beam	!
4F 4FF/	4f/	4F\	-bą	4F/	.	4f/	4f/	-bą	4F\	4F 4FF/	.	4F\	4F/	4F\	.	4f/	4f\	.	4f 4A/	.	4ff/	4cc\	.	4f/	4f/	.	16f/LL	.	16f\LL	16ff\LL	.	16ff\LL	.
.	.	.	.	.	.	.	.	.	.	.	.	.	.	.	.	.	.	.	.	.	.	.	.	.	.	.	(16f/	.	(16F/	16f/	.	(16f/	.
.	.	.	.	.	.	.	.	.	.	.	.	.	.	.	.	.	.	.	.	.	.	.	.	.	.	.	16a/	.	16A/	16a/	.	16a/	.
.	.	.	.	.	.	.	.	.	.	.	.	.	.	.	.	.	.	.	.	.	.	.	.	.	.	.	16cc/JJ)	.	16c/JJ)	16cc/JJ	.	16cc/JJ	.
4r	4r	4r	.	4r	.	4r	4r	.	4r	4r	.	4r	4r	4ryy	.	4r	4ryy	.	4r	.	4r	4ryy	.	4r	4r	.	16ff\LL	.	16f/LL	16ff\LL	.	16ff\LL)	.
.	.	.	.	.	.	.	.	.	.	.	.	.	.	.	.	.	.	.	.	.	.	.	.	.	.	.	(16a\	.	(16A/	16a\	.	(16a\	.
.	.	.	.	.	.	.	.	.	.	.	.	.	.	.	.	.	.	.	.	.	.	.	.	.	.	.	16cc\	.	16c/	16cc\	.	16cc\	.
.	.	.	.	.	.	.	.	.	.	.	.	.	.	.	.	.	.	.	.	.	.	.	.	.	.	.	16ff\JJ	.	16f/JJ)	16ff\JJ	.	16ff\JJ	.
4F 4FF/	4f/	4F\	Daj	4F/	.	4f/	4f/	Daj	4r	4F 4FF/	.	4r	4r	4ryy	.	4f/	4f\	.	4f 4F/	.	4r	4ryy	.	4f/	4f/	.	16aa\LL)	.	16a/LL	16aa\LL	.	16aa\LL)	.
.	.	.	.	.	.	.	.	.	.	.	.	.	.	.	.	.	.	.	.	.	.	.	.	.	.	.	(16cc\	.	(<16c/	16cc\	.	(16cc\	.
.	.	.	.	.	.	.	.	.	.	.	.	.	.	.	.	.	.	.	.	.	.	.	.	.	.	.	16ff\	.	16f/	16ff\	.	16ff\	.
.	.	.	.	.	.	.	.	.	.	.	.	.	.	.	.	.	.	.	.	.	.	.	.	.	.	.	16aa\JJ	.	16a/JJ	16aa\JJ	.	16aa\JJ	.
*	*	*	*	*	*	*	*	*	*	*	*	*	*v	*v	*	*	*	*	*	*	*v	*v	*	*	*	*	*	*	*	*	*	*	*
=34	=34	=34	=34	=34	=34	=34	=34	=34	=34	=34	=34	=34	=34	=34	=34	=34	=34	=34	=34	=34	=34	=34	=34	=34	=34	=34	=34	=34	=34	=34	=34
*	*	*	*	*	*	*	*	*	*	*	*	*	*	*	*	*	*	*	*	*	*	*	*	*	*	*	*	*^	*	*	*
*	*	*	*	*	*	*	*2\right	*	*	*	*	*	*	*	*	*	*	*	*	*	*	*	*2\right	*	*2\right	*	*	*	*	*	*	*
2d-X 2D-X\	2b- 2f/	2D-X/	Bo-	2B-\	.	2f/	2b-\	Bo-	2.r	2D-X 2DD-X/	.	2.r	2.r	.	2b-/	2f\	.	2f 2F/	.	2.r	.	2f/	2b-\	.	2bb-\)	.	2b-\)	2bb-/	2ff\	.	2bb-\)	.
4B- 4BB-\	4dd-X 4b- 4f/	4BB-/	-że	4B-\	.	4f/	4dd-X\	-że	.	4BB- 4BBB-/	.	.	.	.	4dd-X/	4f\	.	4f 4F/	.	.	.	4b- 4f/	4dd-X\	.	4bb-\	.	4dd-X\	4bb-/	4ff\	.	4ddd-X\	.
*	*	*	*	*	*	*	*	*	*	*	*	*	*	*	*	*	*	*	*	*	*	*	*	*	*	*	*	*v	*v	*	*	*
=35	=35	=35	=35	=35	=35	=35	=35	=35	=35	=35	=35	=35	=35	=35	=35	=35	=35	=35	=35	=35	=35	=35	=35	=35	=35	=35	=35	=35	=35	=35	=35
*	*	*	*	*	*	*	*	*	*	*	*	*	*	*	*	*	*	*	*	*^	*	*	*	*	*	*	*	*	*	*	*
*	*	*	*	*	*	*	*	*	*2\right	*	*	*	*	*	*	*	*	*	*	*	*	*	*	*	*	*	*	*	*	*	*	*
*	*	*	*	*	*	*	*	*	*tremolo	*	*	*	*	*	*	*	*	*	*	*	*	*	*	*	*	*	*	*	*	*	*	*
!	!	!	!	!	!	!	!	!	!	!	!LO:DY:a=2	!	!	!LO:DY:rj	!	!	!	!	!	!	!	!	!	!	!	!	!	!	!	!	!	!
[2.F [2.FF/	[2.ff [2.cc [>2.a [2.f\	2.F\	daj.	2.A\	.	2.f/	2.ff\	daj	32F\LLL	16FF/LL	f	2.F\	[2.f [>2.A\	f	[2.cc/	[2.a\	.	[2.f [2.A/	.	[2.cc/	[>2.f\	.	[>2.a/	[2.ff\	.	16aa\LL	.	(16ff\LL	[2.aa [>2.ff\	.	(16fff\LL	.
.	.	.	.	.	.	.	.	.	32F\	.	.	.	.	.	.	.	.	.	.	.	.	.	.	.	.	.	.	.	.	.	.	.
.	.	.	.	.	.	.	.	.	32F\	16AA/	.	.	.	.	.	.	.	.	.	.	.	.	.	.	.	(16ccc\	.	16cc\	.	.	16ccc\	.
.	.	.	.	.	.	.	.	.	32F\	.	.	.	.	.	.	.	.	.	.	.	.	.	.	.	.	.	.	.	.	.	.	.
.	.	.	.	.	.	.	.	.	32F\	16C/	.	.	.	.	.	.	.	.	.	.	.	.	.	.	.	16aa\	.	16a\	.	.	16aa\	.
.	.	.	.	.	.	.	.	.	32F\	.	.	.	.	.	.	.	.	.	.	.	.	.	.	.	.	.	.	.	.	.	.	.
.	.	.	.	.	.	.	.	.	32F\	16F/JJ	.	.	.	.	.	.	.	.	.	.	.	.	.	.	.	16ff\JJ)	.	16f\JJ)	.	.	16ff\JJ)	.
.	.	.	.	.	.	.	.	.	32F\	.	.	.	.	.	.	.	.	.	.	.	.	.	.	.	.	.	.	.	.	.	.	.
*	*	*	*	*	*	*	*	*	*	*rep	*	*	*	*	*	*	*	*	*	*	*	*	*	*	*	*	*	*	*	*	*	*
.	.	.	.	.	.	.	.	.	32F\	16FF/LL	.	.	.	.	.	.	.	.	.	.	.	.	.	.	.	(16ccc\LL	.	(16cc\LL	.	.	(16ccc\LL	.
.	.	.	.	.	.	.	.	.	32F\	.	.	.	.	.	.	.	.	.	.	.	.	.	.	.	.	.	.	.	.	.	.	.
.	.	.	.	.	.	.	.	.	32F\	16AA/	.	.	.	.	.	.	.	.	.	.	.	.	.	.	.	16aa\	.	16a\	.	.	16aa\	.
.	.	.	.	.	.	.	.	.	32F\	.	.	.	.	.	.	.	.	.	.	.	.	.	.	.	.	.	.	.	.	.	.	.
.	.	.	.	.	.	.	.	.	32F\	16C/	.	.	.	.	.	.	.	.	.	.	.	.	.	.	.	16ff\	.	16f\	.	.	16ff\	.
.	.	.	.	.	.	.	.	.	32F\	.	.	.	.	.	.	.	.	.	.	.	.	.	.	.	.	.	.	.	.	.	.	.
.	.	.	.	.	.	.	.	.	32F\	16F/JJ	.	.	.	.	.	.	.	.	.	.	.	.	.	.	.	16cc\JJ)	.	16c\JJ)	.	.	16cc\JJ)	.
*	*	*	*	*	*	*	*	*	*	*Xrep	*	*	*	*	*	*	*	*	*	*	*	*	*	*	*	*	*	*	*	*	*	*
.	.	.	.	.	.	.	.	.	32F\	.	.	.	.	.	.	.	.	.	.	.	.	.	.	.	.	.	.	.	.	.	.	.
*	*	*	*	*	*	*	*	*	*	*rep	*	*	*	*	*	*	*	*	*	*	*	*	*	*	*	*	*	*	*	*	*	*
.	.	.	.	.	.	.	.	.	32F\	16FF/LL	.	.	.	.	.	.	.	.	.	.	.	.	.	.	.	(16aa\LL	.	(16a\LL	.	.	(16aa\LL	.
.	.	.	.	.	.	.	.	.	32F\	.	.	.	.	.	.	.	.	.	.	.	.	.	.	.	.	.	.	.	.	.	.	.
.	.	.	.	.	.	.	.	.	32F\	16AA/	.	.	.	.	.	.	.	.	.	.	.	.	.	.	.	16ff\	.	16f\	.	.	16ff\	.
.	.	.	.	.	.	.	.	.	32F\	.	.	.	.	.	.	.	.	.	.	.	.	.	.	.	.	.	.	.	.	.	.	.
.	.	.	.	.	.	.	.	.	32F\	16C/	.	.	.	.	.	.	.	.	.	.	.	.	.	.	.	16cc\	.	16c\	.	.	16cc\	.
.	.	.	.	.	.	.	.	.	32F\	.	.	.	.	.	.	.	.	.	.	.	.	.	.	.	.	.	.	.	.	.	.	.
.	.	.	.	.	.	.	.	.	32F\	16F/JJ	.	.	.	.	.	.	.	.	.	.	.	.	.	.	.	16a\JJ)	.	16A\JJ	.	.	16a\JJ	.
.	.	.	.	.	.	.	.	.	32F\JJJ	.	.	.	.	.	.	.	.	.	.	.	.	.	.	.	.	.	.	.	.	.	.	.
*	*	*	*	*	*	*	*	*	*Xtremolo	*Xrep	*	*	*	*	*	*	*	*	*	*	*	*	*	*	*	*	*	*	*	*	*	*
*	*	*	*	*	*	*	*	*	*	*	*	*	*	*	*	*	*	*	*	*v	*v	*	*	*	*	*	*	*	*	*	*	*
=36	=36	=36	=36	=36	=36	=36	=36	=36	=36	=36	=36	=36	=36	=36	=36	=36	=36	=36	=36	=36	=36	=36	=36	=36	=36	=36	=36	=36	=36	=36	=36
2F] 2FF/]	2ff] 2cc] 2a] 2f\]	2.r	.	2.r	.	2.r	2.r	.	8F\	8FF/	.	8F\	8f] 8A\]	.	8cc/]	8a\]	.	8f] 8A/]	.	8cc] 8f/]	.	8a/]	8ff\]	.	8f/	.	8F/)	8aa] 8ff\]	.	8f/)	.
.	.	.	.	.	.	.	.	.	8r	8r	.	8r	8r	.	8r	8ryy	.	8r	.	8r	.	8r	8r	.	8r	.	8r	8r	.	8r	.
.	.	.	.	.	.	.	.	.	4F\	4F 4FF/	.	4F\	4f 4A\	.	4cc/	4a\	.	4f 4A/	.	4cc 4f/	.	4a/	4ff\	.	4ff\	.	4ff\	4aa 4ff\	.	4fff\	.
4r	4r	.	.	.	.	.	.	.	4r	4r	.	4r	4r	.	4r	4ryy	.	4r	.	4r	.	4r	4r	.	4r	.	4r	4r	.	4r	.
*	*	*	*	*	*	*	*	*	*	*	*	*	*	*	*v	*v	*	*	*	*	*	*	*	*	*	*	*	*	*	*	*
==	==	==	==	==	==	==	==	==	==	==	==	==	==	==	==	==	==	==	==	==	==	==	==	==	==	==	==	==	==	==
*-	*-	*-	*-	*-	*-	*-	*-	*-	*-	*-	*-	*-	*-	*-	*-	*-	*-	*-	*-	*-	*-	*-	*-	*-	*-	*-	*-	*-	*-	*-
!!!system-decoration: {(p1,p2,p3)}{(p4,p5,p6)}{(p7,p8)}<p9>{(p10,p11)}<p12,p13>{g1}{(p18)}
!!!RDF**kern: > = above
!!!RDF**kern: < = below
!!!ENC: Andrzej Kubiczek
!!!END: 2021-04-25
!!!ENC: Mateusz Solarz
!!!END: 2021-04-08
